X:2262
T:Glen Orchy
O:england
R:Jig
C:Trad
M:6/8
L:1/8
K:EDor
L:1/8
B3 EEE|BAB d2A|F3 DDD|FAB AFD|
B3 EEE|BAB d2A|BdB AFA|BAF EFA:|
|:B3 Bdd|BAB d2A|F3 DDD|FAB AFD||1 B3 Bdd|
BAB d2A|BdB AFA|BAF EFA:|2 B3 EEE|BAB d2A|
BdB AFA|BAF E2B|:EEE FEF|EFA B2A|
DDD FEF|DFB AFD|EEE FEF|EFA d2A|
BdB AFA|1 BAF E2B:|2 BAF EFA|
|:Bdd cdd|Bdd d2A|FAA DAA|FAB AFA|1 Bdd cdd|
Bdd d2A|BdB AFA|BAF EFA:|2 BEE FEF|EFA d2A|
BdB AFA|BAF Ez2|


